src/24x24/places/folder-gruvbox-mix-orange-unlocked.svg

<?xml version="1.0" encoding="UTF-8"?>
<svg width="24" height="24" version="1" xmlns="http://www.w3.org/2000/svg">
 <rect x="2" y="9.5" width="20" height="12" rx="1" ry="1" opacity=".2"/>
 <path d="m2 17c0 0.554 0.446 1 1 1h18c0.554 0 1-0.446 1-1v-11c0-0.554-0.446-1-1-1h-9c-1.5 0-2-2-3.5-2h-5.5c-0.554 0-1 0.446-1 1" fill="#b94c07"/>
 <rect x="2" y="8.5" width="20" height="12" rx="1" ry="1" opacity=".2"/>
 <rect x="4" y="7" width="16" height="8" rx="1" ry="1" fill="#F6E0B4"/>
 <rect x="2" y="9" width="20" height="12" rx="1" ry="1" fill="#f28534"/>
 <path d="m3 3c-0.554 0-1 0.446-1 1v0.5c0-0.554 0.446-1 1-1h5.5c1.5 0 2 2 3.5 2h9c0.554 0 1 0.446 1 1v-0.5c0-0.554-0.446-1-1-1h-9c-1.5 0-2-2-3.5-2z" fill="#F6E0B4" opacity=".1"/>
 <path d="m12 11c-1.097 0-1.979 0.894-1.996 2h0.996c0-0.555 0.446-1 1-1s1 0.445 1 1v2h-3.5c-0.277 0-0.5 0.223-0.5 0.5v3c0 0.277 0.223 0.5 0.5 0.5h5c0.277 0 0.5-0.223 0.5-0.5v-3c0-0.277-0.223-0.5-0.5-0.5h-0.5v-1.969c0-1.12-0.892-2.031-2-2.031z" fill="#4E3B30"/>
</svg>

<svg xmlns="http://www.w3.org/2000/svg" width="24" height="24" version="1">
 <rect style="opacity:0.2" width="20" height="12" x="2" y="9.5" rx="1" ry="1"/>
 <path style="fill:#b94c07" d="M 2,17 C 2,17.554 2.446,18 3,18 H 21 C 21.554,18 22,17.554 22,17 V 6 C 22,5.446 21.554,5 21,5 H 12 C 10.5,5 10,3 8.5,3 H 3 C 2.446,3 2,3.446 2,4"/>
 <rect style="opacity:0.2" width="20" height="12" x="2" y="8.5" rx="1" ry="1"/>
 <rect style="fill:#F6E0B4" width="16" height="8" x="4" y="7" rx="1" ry="1"/>
 <rect style="fill:#f28534" width="20" height="12" x="2" y="9" rx="1" ry="1"/>
 <path style="opacity:0.1;fill:#F6E0B4" d="M 3,3 C 2.446,3 2,3.446 2,4 V 4.5 C 2,3.946 2.446,3.5 3,3.5 H 8.5 C 10,3.5 10.5,5.5 12,5.5 H 21 C 21.554,5.5 22,5.946 22,6.5 V 6 C 22,5.446 21.554,5 21,5 H 12 C 10.5,5 10,3 8.5,3 Z"/>
 <path style="fill:#4E3B30" d="M 12,11 C 10.903,11 10.021,11.894 10.004,13 H 11 C 11,12.445 11.446,12 12,12 12.554,12 13,12.445 13,13 V 15 H 12 11 10 9.5 C 9.223,15 9,15.223 9,15.5 V 18.5 C 9,18.777 9.223,19 9.5,19 H 14.5 C 14.777,19 15,18.777 15,18.5 V 15.5 C 15,15.223 14.777,15 14.5,15 H 14 V 13.031 C 14,11.911 13.108,11 12,11 Z"/>
</svg>
